Icons/com_eventbrite_attendee.svg

<svg viewBox="0 0 48 48" xmlns:xlink="http://www.w3.org/1999/xlink">
 <defs>
  <linearGradient id="0">
   <stop stop-opacity="0"/>
   <stop offset="1"/>
  </linearGradient>
  <linearGradient xlink:href="#0" id="1" gradientUnits="userSpaceOnUse" gradientTransform="translate(4e-7,-48)" y1="47" x2="0" y2="1"/>
  <clipPath id="2">
   <g transform="translate(0,-1004.3622)">
    <rect rx="4" y="1005.36" x="1" height="46" width="46" fill="#1890d0"/>
   </g>
  </clipPath>
  <clipPath id="3">
   <g transform="translate(0,-1004.3622)">
    <rect rx="4" y="1005.36" x="1" height="46" width="46" fill="#1890d0"/>
   </g>
  </clipPath>
 </defs>
 <g>
  <g transform="translate(0,-1004.3622)">
   <path d="m 5,1006.3622 c -2.216,0 -4,1.784 -4,4 l 0,37.25 c 0,2.216 1.784,4 4,4 l 38,0 c 2.216,0 4,-1.784 4,-4 l 0,-37.25 c 0,-2.216 -1.784,-4 -4,-4 l -38,0 z m -4,41.5 0,0.5 c 0,2.216 1.784,4 4,4 l 38,0 c 2.216,0 4,-1.784 4,-4 l 0,-0.5 c 0,2.216 -1.784,4 -4,4 l -38,0 c -2.216,0 -4,-1.784 -4,-4 z" opacity="0.02"/>
   <path d="m 1,1047.6122 0,0.25 c 0,2.216 1.784,4 4,4 l 38,0 c 2.216,0 4,-1.784 4,-4 l 0,-0.25 c 0,2.216 -1.784,4 -4,4 l -38,0 c -2.216,0 -4,-1.784 -4,-4 z" opacity="0.05"/>
   <rect width="46" height="46" x="1" y="1005.61" rx="4" opacity="0.1"/>
  </g>
 </g>
 <g>
  <g transform="translate(0,-1004.3622)">
   <rect rx="4" y="1005.36" x="1" height="46" width="46" fill="#ff7e31"/>
  </g>
 </g>
 <g>
  <rect transform="scale(1,-1)" width="46" height="46" x="1" y="-46.998" rx="4" opacity="0.1" fill="url(#1)"/>
 </g>
 <g>
  <g clip-path="url(#2)">
   <g opacity="0.1">
    <g>
     <path d="M 18.5 12 C 19.328125 12 20.074219 12.671875 19.996094 13.5 L 18 34.5 C 17.917969 35.328125 17.332031 36 16.5 36 C 15.671875 36 14.925781 35.328125 15.003906 34.5 L 17 13.5 C 17.082031 12.671875 17.667969 12 18.5 12 Z M 18.5 12 "/>
     <path d="M 18.5 11.996094 L 32.5 11.996094 C 33.328125 11.996094 34 12.667969 34 13.496094 C 34 14.328125 33.328125 14.996094 32.5 14.996094 L 18.5 14.996094 C 17.671875 14.996094 17 14.328125 17 13.496094 C 17 12.667969 17.671875 11.996094 18.5 11.996094 Z M 18.5 11.996094 "/>
     <path d="M 16.5 32.996094 L 30.5 32.996094 C 31.328125 32.996094 32 33.667969 32 34.496094 C 32 35.328125 31.328125 35.996094 30.5 35.996094 L 16.5 35.996094 C 15.671875 35.996094 15 35.328125 15 34.496094 C 15 33.667969 15.671875 32.996094 16.5 32.996094 Z M 16.5 32.996094 "/>
     <path d="M 17.5 22.996094 L 29.5 22.996094 C 30.328125 22.996094 31 23.667969 31 24.496094 C 31 25.328125 30.328125 25.996094 29.5 25.996094 L 17.5 25.996094 C 16.671875 25.996094 16 25.328125 16 24.496094 C 16 23.667969 16.671875 22.996094 17.5 22.996094 Z M 17.5 22.996094 "/>
    </g>
   </g>
  </g>
 </g>
 <g>
  <g clip-path="url(#3)">
   <g transform="translate(0,-1)">
    <g>
     <path d="M 18.5 12 C 19.328125 12 20.074219 12.671875 19.996094 13.5 L 18 34.5 C 17.917969 35.328125 17.332031 36 16.5 36 C 15.671875 36 14.925781 35.328125 15.003906 34.5 L 17 13.5 C 17.082031 12.671875 17.667969 12 18.5 12 Z M 18.5 12 " fill="#f9f9f9"/>
     <path d="M 18.5 11.996094 L 32.5 11.996094 C 33.328125 11.996094 34 12.667969 34 13.496094 C 34 14.328125 33.328125 14.996094 32.5 14.996094 L 18.5 14.996094 C 17.671875 14.996094 17 14.328125 17 13.496094 C 17 12.667969 17.671875 11.996094 18.5 11.996094 Z M 18.5 11.996094 " fill="#f9f9f9"/>
     <path d="M 16.5 32.996094 L 30.5 32.996094 C 31.328125 32.996094 32 33.667969 32 34.496094 C 32 35.328125 31.328125 35.996094 30.5 35.996094 L 16.5 35.996094 C 15.671875 35.996094 15 35.328125 15 34.496094 C 15 33.667969 15.671875 32.996094 16.5 32.996094 Z M 16.5 32.996094 " fill="#f9f9f9"/>
     <path d="M 17.5 22.996094 L 29.5 22.996094 C 30.328125 22.996094 31 23.667969 31 24.496094 C 31 25.328125 30.328125 25.996094 29.5 25.996094 L 17.5 25.996094 C 16.671875 25.996094 16 25.328125 16 24.496094 C 16 23.667969 16.671875 22.996094 17.5 22.996094 Z M 17.5 22.996094 " fill="#f9f9f9"/>
    </g>
   </g>
  </g>
 </g>
 <g>
  <g transform="translate(0,-1004.3622)">
   <path d="m 1,1043.3622 0,4 c 0,2.216 1.784,4 4,4 l 38,0 c 2.216,0 4,-1.784 4,-4 l 0,-4 c 0,2.216 -1.784,4 -4,4 l -38,0 c -2.216,0 -4,-1.784 -4,-4 z" opacity="0.1"/>
  </g>
 </g>
</svg>

<svg viewBox="0 0 48 48"><defs><linearGradient id="linearGradient3764" x1="1" x2="47" gradientUnits="userSpaceOnUse" gradientTransform="translate(-48.000001,0.00221467)"><stop stop-color="#ff721d" stop-opacity="1"/><stop offset="1" stop-color="#ff7e31" stop-opacity="1"/></linearGradient><clipPath id="clipPath-419103824"><g transform="translate(0,-1004.3622)"><rect rx="4" y="1005.36" x="1" height="46" width="46" fill="#1890d0"/></g></clipPath><clipPath id="clipPath-432053465"><g transform="translate(0,-1004.3622)"><rect rx="4" y="1005.36" x="1" height="46" width="46" fill="#1890d0"/></g></clipPath></defs><g><path d="m 1 43 l 0 0.25 c 0 2.216 1.784 4 4 4 l 38 0 c 2.216 0 4 -1.784 4 -4 l 0 -0.25 c 0 2.216 -1.784 4 -4 4 l -38 0 c -2.216 0 -4 -1.784 -4 -4 z m 0 0.5 l 0 0.5 c 0 2.216 1.784 4 4 4 l 38 0 c 2.216 0 4 -1.784 4 -4 l 0 -0.5 c 0 2.216 -1.784 4 -4 4 l -38 0 c -2.216 0 -4 -1.784 -4 -4 z" opacity="0.02"/><path d="m 1 43.25 l 0 0.25 c 0 2.216 1.784 4 4 4 l 38 0 c 2.216 0 4 -1.784 4 -4 l 0 -0.25 c 0 2.216 -1.784 4 -4 4 l -38 0 c -2.216 0 -4 -1.784 -4 -4 z" opacity="0.05"/><path d="m 1 43 l 0 0.25 c 0 2.216 1.784 4 4 4 l 38 0 c 2.216 0 4 -1.784 4 -4 l 0 -0.25 c 0 2.216 -1.784 4 -4 4 l -38 0 c -2.216 0 -4 -1.784 -4 -4 z" opacity="0.1"/></g><g><rect width="46" height="46" x="-47" y="1" rx="4" transform="matrix(0,-1,1,0,0,0)" fill="url(#linearGradient3764)" fill-opacity="1"/></g><g><g clip-path="url(#clipPath-419103824)"><g opacity="0.1"><!-- color: #ff7e31 --><g><path d="m 18.5 12 c 0.828 0 1.574 0.672 1.496 1.5 l -1.996 21 c -0.082 0.828 -0.668 1.5 -1.5 1.5 c -0.828 0 -1.574 -0.672 -1.496 -1.5 l 1.996 -21 c 0.082 -0.828 0.668 -1.5 1.5 -1.5 m 0 0" fill="#000"/><path d="m 18.5 11.996 l 14 0 c 0.828 0 1.5 0.672 1.5 1.5 c 0 0.832 -0.672 1.5 -1.5 1.5 l -14 0 c -0.828 0 -1.5 -0.668 -1.5 -1.5 c 0 -0.828 0.672 -1.5 1.5 -1.5 m 0 0" fill="#000"/><path d="m 16.5 32.996 l 14 0 c 0.828 0 1.5 0.672 1.5 1.5 c 0 0.832 -0.672 1.5 -1.5 1.5 l -14 0 c -0.828 0 -1.5 -0.668 -1.5 -1.5 c 0 -0.828 0.672 -1.5 1.5 -1.5 m 0 0" fill="#000"/><path d="m 17.5 22.996 l 12 0 c 0.828 0 1.5 0.672 1.5 1.5 c 0 0.832 -0.672 1.5 -1.5 1.5 l -12 0 c -0.828 0 -1.5 -0.668 -1.5 -1.5 c 0 -0.828 0.672 -1.5 1.5 -1.5 m 0 0" fill="#000"/></g></g></g></g><g><g clip-path="url(#clipPath-432053465)"><g transform="translate(0,-1)"><!-- color: #ff7e31 --><g><path d="m 18.5 12 c 0.828 0 1.574 0.672 1.496 1.5 l -1.996 21 c -0.082 0.828 -0.668 1.5 -1.5 1.5 c -0.828 0 -1.574 -0.672 -1.496 -1.5 l 1.996 -21 c 0.082 -0.828 0.668 -1.5 1.5 -1.5 m 0 0" fill="#f9f9f9"/><path d="m 18.5 11.996 l 14 0 c 0.828 0 1.5 0.672 1.5 1.5 c 0 0.832 -0.672 1.5 -1.5 1.5 l -14 0 c -0.828 0 -1.5 -0.668 -1.5 -1.5 c 0 -0.828 0.672 -1.5 1.5 -1.5 m 0 0" fill="#f9f9f9"/><path d="m 16.5 32.996 l 14 0 c 0.828 0 1.5 0.672 1.5 1.5 c 0 0.832 -0.672 1.5 -1.5 1.5 l -14 0 c -0.828 0 -1.5 -0.668 -1.5 -1.5 c 0 -0.828 0.672 -1.5 1.5 -1.5 m 0 0" fill="#f9f9f9"/><path d="m 17.5 22.996 l 12 0 c 0.828 0 1.5 0.672 1.5 1.5 c 0 0.832 -0.672 1.5 -1.5 1.5 l -12 0 c -0.828 0 -1.5 -0.668 -1.5 -1.5 c 0 -0.828 0.672 -1.5 1.5 -1.5 m 0 0" fill="#f9f9f9"/></g></g></g></g><g><g transform="translate(0,-1004.3622)"><path d="m 1 1043.36 0 4 c 0 2.216 1.784 4 4 4 l 38 0 c 2.216 0 4 -1.784 4 -4 l 0 -4 c 0 2.216 -1.784 4 -4 4 l -38 0 c -2.216 0 -4 -1.784 -4 -4 z" opacity="0.1"/></g></g></svg>
